X:149
T:Morris dance
M:C
L:1/8
K:Bb
%%score 1 2
V:1 clef-treble
V:2 clef-bass octave=-1
V:1
G3B AGg2&B,6x2|f2gab2d2&x6DE|[Fc]2[GB]2[FBd]2[EAc]2|[DB]6[^Fd]2|G3B AGg2|
V:2
[G,G]6[EB]2|A2e2[Bd]2B,C|D2E2F2F,2|B,2B,Cx2c2&x4D4|[GB]6[EB]2|
V:1
f2gab2d2&x6DE|[Fc]2[GB]2[FBd]2[EAc]2|[DB]6||[Bd]2|c3ed3g&G4G4|c3ed3g&G4G4|
V:2
A2e2[Bd]2B,C&F4x4|D2E2F2F,2|B,6||[GBd]2|[Gce]4[GBd]4|[Gce]4[GBd]4|
V:1
g2b2a2g^f&B4c4|[Bg]6"_ff"[ceg]a|[db]2B2[FBd]2[EAc]2|[DB]6"_p"[FBd]e|[FBf]2[GBd]2[Gce]2[Gd]c|
V:2
[DGBd]4[DAc]4|[GB]6[Fce]2|[Bd]2DEF2F,2|B,6B,C|D2G2C2E2|
V:1
[^FAd]6"^cres."de|[=FB=f]fed[GBg]2cd|[EAe]edc[FAf]2Bc|!f![DGd]2cBA2xG&x4[DG]2^F2|[B,G]8||
V:2
D6B,C|D2CB,E2A,B,|C2B,A,D2G,A,|B,2A,G,D2D,2|G,8||

